X: 4024
T: A FAIR WIND TO GREENLAND
R: Reel.
%R: reel
B: James Kerr "Merry Melodies" v.4 p.05 #24
Z: 2016 John Chambers <jc:trillian.mit.edu>
M: C|
L: 1/8
K: A
e |\
agae cAAc | dcBA GBEg |\
agae cAAa | fdBG A2-A :|\
B |\
cBAc (dB)TB2 | cBAc Beed |
cBAc dfBd | cABG A2(AB) |\
cBAc dfBd | cBAc Beed |\
cAec fdba | gbeg a2-a |]

%%sep 1 1 500
%%sep 1 1 500

